X: 1
T: The Gander In The Pratie Hole
R: jig
M: 6/8
L: 1/8
K: Dmaj
FAD FAD|GFG EFG|FAD FAF|GED {G} D2 E|
FAD FAD|GFG Efg|fed ecA|GED {G} D2 z:||
Add {e} ded|^cAB cAG|Add {e} ded|^cAB c2 B|
Add {e} ded|^cAB cde|fed ecA|GED {G} D2 z:||


Tune 401	Setting 26368

